X: 54
T: Seud nan Ceud Bliadhna
T: The Centenary Jewel
C:Phil Cunningham
M:4/4
L:1/8
K:D
   d>B | A>A A>B G>B d>B | A>e d<A B2  d>B | A>A A>B d>e f<a | g2  B2  B2
   d>B | A>A A>B G>B d>B | A>e d<A B2  A>B | d>d d<f e>f g<a | f2  d2  d2 :|
|: f>g | a>f g>e f<a g>e | f<d g>d B2  d>B | A>A A>B d>e f<a | g2  B2  B2
|1 f>g | a>f g>e f<a g>e | f<d g>d B2  A>B | d>d d>f e>f g<a | f2  d2  d2 :|
|2 d>B | A>A A>B G>B d>B | A>e d<A B2  A>B | d>d d>f e>f g<a | f2  d2  d2 ||
|: d>B | A>A A>B G>G G>B | A>A A<f e>d e<f | A>A A>B d2  e>f | g>e f<d B2
y  d>B | A>A A>B G>B d>B | A>a f<d B2  A>B | d>d d>f e>f g<a | f2  d2  d2 :|
|: f>g | a>A A<a A<a g>e | f<d g>d B2  d>B | A>A A>B d>e f<a | g2  B2  B2
|1 f>g | a>A A<a A<a g>e | f<d g>d B2  A>B | d>d d>f e>f g<a | f2  d2  d2 :|
|2 A>B | G>B d>B A>c e<c | d>e f<g B2  A>B | d>d d>f e>f g<a | f2  d2  d2 |]

%%sep 2 1 500

